public/files/perm/themes/base/neo/img/forward_arrow.svg

<svg fill="none" height="20" viewBox="0 0 23 20" width="23" xmlns="http://www.w3.org/2000/svg"><path d="m12.7771 1.23646c0-1.115717 1.3983-1.659512 2.1841-.846948l7.575 7.838118c.6184.63755.6184 1.64075 0 2.27827l-7.5747 7.8381c-.7858.8126-2.1844.2688-2.1844-.8469l.0007-4.3847c-9.66385 0-10.30466 3.0877-10.26281 6.2974.00798.6125-.82098.8156-1.13052.2844-.786475-1.3502-1.38447-3.194-1.38447-5.3317 0-8.1194 8.94444-8.74133 12.7778-8.74133z" fill="#000c12"/></svg>

<svg width="23" height="20" viewBox="0 0 23 20" fill="none" xmlns="http://www.w3.org/2000/svg">
<path d="M12.7771 1.23646C12.7771 0.120743 14.1754 -0.423052 14.9612 0.389512L22.5362 8.22763C23.1546 8.86518 23.1546 9.86838 22.5362 10.5059L14.9615 18.344C14.1757 19.1566 12.7771 18.6128 12.7771 17.4971L12.7778 13.1124C3.11395 13.1124 2.47314 16.2001 2.51499 19.4098C2.52297 20.0223 1.69401 20.2254 1.38447 19.6942C0.597995 18.344 0 16.5002 0 14.3625C0 6.2431 8.94444 5.62117 12.7778 5.62117L12.7771 1.23646Z" fill="#000C12"/>
</svg>
